X: 01044
T: 4th of JULY
C: Bob McQuillen July 4, 1975
B: Bob's Note Book 1 #44
%R: march
Z: 2019 John Chambers <jc:trillian.mit.edu>
M: C
L: 1/4
K: G
DE \
| G2 B>A | GA Bc | d2 g2 | d2Bd | e2 g2 | d2g2 | d>e dB | AcBA |
| G2 B2 | GA Bc | d2g2 | d2 Bd | e2 g2 | d>e dB | A2 G>F | G2 ||
|| GA \
| B2 G2 | B2 d2 | g>g fe | d2 GA | B2 G2 | B2 d2 | eg dB | A2 GA |
| B2 G2 | B2 d2 | g>g fe | d2 Bd | e>f ge | dg dB | A2 G>A | G2 |]
%%begintext align
%%endtext

%%sep 1 1 500

%%sep 1 1 500

